X: 48
T:Ymdaith Dolgellau
T:The Dolgellau March
M:C
L:1/8
Q:150
S:Mary Richards' (1787-1877) Collection
R:March
A:Wales
Z:brian_martin12345@yahoo.com
K:D
D>E|F2A>FD2F>A|d>cdBA2GF|GBdB AdAF|E2E>EE2D>E|!
F2A>FD2F>A|dcdB e>fed|cecA BdB^G|A2A>AA2:||!
F>G|A2A>A AcBA|G2G>GG2G>A|B2B>B BdcB|A2A>AA2D>E|!
F2A>FD2F>A|d>cdBA2GF|GBdB AGFE|D2D>DD2:||

